dist/svgs/core-ui-icons/free/cil-hospital.svg

<svg xmlns="http://www.w3.org/2000/svg" viewBox="0 0 512 512"><path d="M160 304h32v32h-32zm80 0h32v32h-32zm80 0h32v32h-32z"/><path d="M440 464V88h-72V16H144v72H72v376H16v32h480v-32zM176 48h160v160H176zm232 416H272v-64h-32v64H104V120h40v120h224V120h40z"/><path d="M272 80h-32v32h-32v32h32v32h32v-32h32v-32h-32V80z"/></svg>

<svg xmlns="http://www.w3.org/2000/svg" viewBox="0 0 512 512">
  <rect width="32" height="32" x="160" y="304" fill="var(--ci-primary-color, currentColor)" class="ci-primary"/>
  <rect width="32" height="32" x="240" y="304" fill="var(--ci-primary-color, currentColor)" class="ci-primary"/>
  <rect width="32" height="32" x="320" y="304" fill="var(--ci-primary-color, currentColor)" class="ci-primary"/>
  <path fill="var(--ci-primary-color, currentColor)" d="M440,464V88H368V16H144V88H72V464H16v32H496V464ZM176,48H336V208H176ZM408,464H272V400H240v64H104V120h40V240H368V120h40Z" class="ci-primary"/>
  <polygon fill="var(--ci-primary-color, currentColor)" points="272 80 240 80 240 112 208 112 208 144 240 144 240 176 272 176 272 144 304 144 304 112 272 112 272 80" class="ci-primary"/>
</svg>
